X:680
T:Charlie Lennon's No. 4
M:4/4
L:1/8
Q:240
N:Charlie Lennon
R:reel
Z:Philippe Varle
K:D
F2 AF dFAF|DFAF GBAG|F2 AF dFAF|G2 FG EFGE|
F2 AF dFAF|DFAF GBAG|1 FAdf ecAB| {c}BAeA cAGA :|2 FAdf edef|g2 ec ABcA||
defd Adfd|eABA gefe|d2 fd adfd|(3Bcd ef gece|
d2 fd Adfd|B2 GB g2 fg| (3agf ge fded|1 cded cAce:|2 cded cAGE||
